X:1
T:Red Box Reel
R:Reel
S:
H:
N:
D:Milltown Malbay Concertina Recital
Z:Brian Boyce  irtrad-l 2000-03-31
Z:Adrian Scahill
M:4/4
L:1/8
K:G
afge fddB | cABG ADD2 | FD (3EFG A3B | cBAB cd (3efg |
afge fddB | cABG ADD2 | FD (3EFG A3B | cAGd ADD2 :| \
~c3e gcec | ~d3f adfd | ~g2ba ~f2af | eafd e^cAB |
~c3e gcec | ~d3f adfd | ~g2ba fedB | AFGE D3d :| \
